X:1
T:I attempt from love`s sickness
T:I attempt from love`s sickness
T:John Dryden                                                                                                               Henry Purcell (1659-1695) arr. Joseph Corfe
C:Henry Purcell (1659-1695) arr. Joseph Corfe
%%score 1 2 3
L:1/8
Q:1/4=80
M:3/4
K:A
V:1 treble nm="Treble" snm="T."
V:2 treble-8 nm="Tenor" snm="T."
V:3 bass nm="Bass" snm="B."
V:1
 c>B | A2 e2 (B3/2c/4d/4) | c2 A2 e2 | (fe dc) (dB) | (cd ec) (BA) | (A2 G2) G2 | A2 B2 c2 | %7
w: I at-|tempt from love`s * *|sick- ness to|fly, * * * to *|fly * * * in *|vain * since|I am my-|
 F2 G2 A2 | B2 E2 c2 | d2 e2 f2 | B2 c2 d2 | e2 (dc) (BA) | A4 z2 | z2 z2 f2 | ^e2 c2 (cd/=e/) | %15
w: self my own|fe- ver, since|I am my-|self my own|fe- ver * and *|pain.|No|more, now fond * *|
 d4 c2 | c3 d B2 | c4 z2 | z6 | z2 z2 G2 | c2 (GA) (BG) | A2 F2 c2 | A3 B (AG) | F4 c>B | %24
w: heart with|pride no more|swell,||thou|can`st not * raise *|for- ces e-|nough to re- *|bel. I at-|
 A2 e2 (B3/2c/4d/4) | c2 A2 e2 | (fe dc) (dB) | (cd ec) (BA) | (A2 G2) G2 | A2 B2 c2 | F2 G2 A2 | %31
w: tempt from love`s * *|sick- ness to|fly, * * * to *|fly * * * in *|vain * since|I am my-|self my own|
 B2 E2 c2 | d2 e2 f2 | B2 c2 d2 | e2 (dc) (BA) | A4 c2 | c3 d (ec) | ^A2 c2 f2 | (e d2) e (dc) | %39
w: fe- ver, since|I am my-|self my own|fe- ver * and *|pain. For|love has more *|pow`rand * less|mer- * cy than *|
 B4 ^d2 | e2 (^dc) (BA) | (GA) B2 (AB) | (cB) (AG) (FE) | (^DE) F2 (GA) | B2 (AG) (TF>E) | E4 c>B | %46
w: fate to|make us * seek *|ru- * in, to *|make * us * seek *|ru- * in and *|love chose * that *|hate. I at-|
 A2 e2 (B3/2c/4d/4) | c2 A2 e2 | (fe dc) (dB) | (cd ec) (BA) | (A2 G2) G2 | A2 B2 c2 | F2 G2 A2 | %53
w: tempt from love`s * *|sick- ness to|fly, * * * to *|fly * * * in *|vain * since|I am my-|self my own|
 B2 E2 c2 | d2 e2 f2 | B2 c2 d2 | e2 (dc) (BA) | A4 z2 |] %58
w: fe- ver, since|I am my-|self my own|fe- ver * and *|pain.|
V:2
 z2 | z2 z2 G>B | A2 A2 A2 | A2 B2 G2 | A4 (dc) | (c2 B2) E2 | E2 G2 A2 | (fe) d2 c2 | d2 B2 e2 | %9
w: |I at-|tempt from love`s|sick- ness to|fly in *|vain, * since|I am my-|self * my own|fe- ver, since|
 A2 c2 d2 | G2 A2 B2 | A>c (BA) G2 | A4 c2 | A2 F2 A2 | G2 ^E2 (Ff) | f4 ^e2 | f3 f f2 | ^e4 e2 | %18
w: I am my-|self my own|fe- * ver * and|pain. No|more, now no|more now fond *|heart with|pride no more|swell, thou|
 f2 (cd) (ec) | d2 B2 ^e2 | f2 ^e2 e2 | f2 f2 f2 | f3 g ^e2 | f4 z2 | z2 z2 G>B | A2 A2 A2 | %26
w: can`st not * raise *|for- ces, thou|can`st not raise|for- ces e-|nough to re-|bel.|I at-|tempt from love`s|
 A2 B2 G2 | A4 (dc) | (c2 B2) E2 | E2 G2 A2 | (fe) d2 c2 | d2 B2 e2 | A2 c2 d2 | G2 A2 B2 | %34
w: sick- ness to|fly in *|vain, * since|I am my-|self * my own|fe- ver, since|I am my-|self my own|
 (A>c) (BA) G2 | A4 z2 | a4 ce | e2 ^A2 B2 | (c B2) c (B^A) | B4 z2 | z2 z2 z2 | z2 z2 (AG) | %42
w: fe- * ver * and|pain.|Love has more|pow`rand * less|mer- * cy than *|fate||to *|
 A2 A2 ^A2 | B2 ^d2 (ed) | e2 (fe) (T^d>e) | e4 z2 | z2 z2 G>B | A2 A2 A2 | A2 B2 G2 | A4 (dc) | %50
w: make us seel|ru- in and *|love those * that *|hate.|I at-|tempt from love`s|sick- ness to|fly in *|
 c2 B2 E2 | E2 G2 A2 | (fe) d2 c2 | d2 B2 e2 | A2 c2 d2 | G2 A2 B2 | (A>c) (BA) G2 | A4 z2 |] %58
w: vain, * since|I am my-|self * my own|fe- ver, since|I am my-|self my own|fe- * ver * and|pain.|
V:3
 z2 | z2 z2 E,>G, | A,2 A,,2 C,2 | D,2 D,3 D, | C,4 D,2 | E,4 (E,D,) | C,2 B,,2 A,,2 | %7
w: |I at-|tempt from love`s|sick- ness to|fly in|vain, since *|I am my-|
 (D,C,) B,,2 A,,2 | A,,2 G,,2 (A,=G,) | F,2 E,2 D,2 | E,2 E,2 D,2 | C,2 D,2 E,2 | A,,4 z2 | %13
w: self * my own|fe- ver, since *|I am my-|self my own|fe- ver and|pain.|
 z2 z2 F,2 | C,2 C,2 ^A,,2 | B,,4 C,2 | D,2 D,2 D,2 | (C,2 C2) B,2 | ^A,2 F,2 A,2 | B,2 G,2 (CB,) | %20
w: No|more now fond|heart with|pride no more|swell, * thou|can`st not raise|for- ces, thou *|
 (A,B,) C2 C,2 | F,2 (F,G,) (A,F,) | D,2 B,,2 C,2 | F,4 z2 | z2 z2 E,>G, | A,2 A,,2 C,2 | %26
w: can`st * not raise|for- ces * e- *|nough to re-|bel.|I at-|tempt from love`s|
 D,2 D,3 D, | C,4 D,2 | E,4 E,D, | C,2 B,,2 A,,2 | (D,C,) B,,2 A,,2 | A,,2 G,,2 (A,=G,) | %32
w: sick- ness to|fly in|vain, since *|I am my-|self * my own|fe- ver, since *|
 F,2 E,2 D,2 | E,2 E,2 D,2 | C,2 D,2 E,2 | A,,4 z2 | C4 G,G, | F,3 E, D,2 | E,2 F,2 F,2 | %39
w: I am my-|self my own|fe- ver and|pain.|Love has more|pow`r and less|mer- cy than|
 B,,4 B,,2 | C,4 ^D,2 | (E,F,) (E,D,) (C,B,,) | A,,2 B,,2 C,2 | (B,,C,) (B,,A,,) (G,,F,,) | %44
w: fate to|make, to|make * us * seek *|ru- in, seek|ru- * in * and *|
 G,,2 A,,2 B,,2 | E,4 z2 | z2 z2 E,>G, | A,2 A,,2 C,2 | D,2 D,3 D, | C,4 D,2 | E,4 (E,D,) | %51
w: love those that|hate.|I at-|tempt from love`s|sick- ness to|fly in|vain, since *|
 C,2 B,,2 A,,2 | (D,C,) B,,2 A,,2 | A,,2 G,,2 (A,=G,) | F,2 E,2 D,2 | E,2 E,2 D,2 | C,2 D,2 E,2 | %57
w: I am my-|self * my own|fe- ver, since *|I am my-|self my own|fe- ver and|
 A,,4 z2 |] %58
w: pain.|

